X:1
T:Tumbalalaika
T:Tumbalalaika
T:Russian Folk Song
C:unknown
Z:Public Domain
L:1/4
M:3/4
K:F
V:1 treble nm="Piano" snm="Pno."
%%MIDI program 0
V:1
"Dm" A2 A | A2 A | A G F |"A7" E3 | G2 G | G2 G | G F E |"Dm" D3 | D F A |"Dm7" d2 d |"Bb" f e d | %11
w: Shtet a|bo chur|un * er|tracht|tracht un|tracht a|gan * tse|nacht|ve men tsu|ne men|un nit far|
"F" A2 A |"Gm" c B G |"A" E2 E | G F E |"Dm" D2 D | A A A | A A A | A G F |"A7" E2 E | G G G | %21
w: shem en|vem en tsu|nem en|un nit far|shem en|tum ba la|tum ba la|tum ba la|lai ka|tum ba la|
 G G G | G F E |"Dm" D2 D | D F A |"Dm7" d2 d |"Bb" f e d |"F" A2 A |"Gm" c B G |"A7" E2 E | %30
w: tum ba la|tum ba la|lai ka|tum ba la|lai ka|shpil ba la|lai ka|shpil ba la|lai ka|
 G F E |"^Dm" D3 | A3 |"Dm" d2 z |] %34
w: fre lich zol|zain|||

